img/image/design/heading-graphic.svg

<svg width="351" height="351" fill="none" xmlns="http://www.w3.org/2000/svg"><g filter="url(#a)"><path fill-rule="evenodd" clip-rule="evenodd" d="M175.16 208.896c18.501 0 33.5-14.999 33.5-33.5 0-18.502-14.999-33.5-33.5-33.5-18.502 0-33.5 14.998-33.5 33.5 0 18.501 14.998 33.5 33.5 33.5Zm13.819-35.999c1.786 1.187 1.786 3.81 0 4.997l-17.949 11.927c-1.994 1.325-4.66-.105-4.66-2.499v-23.853c0-2.394 2.666-3.824 4.66-2.499l17.949 11.927Z" fill="#29B7C1"/></g><circle cx="175.66" cy="175.896" r="65.5" stroke="#fff" stroke-dasharray="8 8"/><circle cx="175.66" cy="175.896" r="111.5" stroke="#fff" stroke-dasharray="8 8"/><circle cx="175.66" cy="175.896" r="174.5" stroke="#fff" stroke-dasharray="8 8"/><defs><filter id="a" x="141.66" y="141.896" width="67" height="67" filterUnits="userSpaceOnUse" color-interpolation-filters="sRGB"><feFlood flood-opacity="0" result="BackgroundImageFix"/><feBlend in="SourceGraphic" in2="BackgroundImageFix" result="shape"/><feColorMatrix in="SourceAlpha" values="0 0 0 0 0 0 0 0 0 0 0 0 0 0 0 0 0 0 127 0" result="hardAlpha"/><feOffset/><feGaussianBlur stdDeviation="7.5"/><feComposite in2="hardAlpha" operator="arithmetic" k2="-1" k3="1"/><feColorMatrix values="0 0 0 0 0 0 0 0 0 0 0 0 0 0 0 0 0 0 0.1 0"/><feBlend in2="shape" result="effect1_innerShadow_16673_218"/></filter></defs></svg>

<svg width="351" height="351" viewBox="0 0 351 351" fill="none" xmlns="http://www.w3.org/2000/svg">
<g filter="url(#filter0_i_16673_218)">
<path fill-rule="evenodd" clip-rule="evenodd" d="M175.16 208.896C193.661 208.896 208.66 193.897 208.66 175.396C208.66 156.894 193.661 141.896 175.16 141.896C156.658 141.896 141.66 156.894 141.66 175.396C141.66 193.897 156.658 208.896 175.16 208.896ZM188.979 172.897C190.765 174.084 190.765 176.707 188.979 177.894L171.03 189.821C169.036 191.146 166.37 189.716 166.37 187.322V163.469C166.37 161.075 169.036 159.645 171.03 160.97L188.979 172.897Z" fill="#29B7C1"/>
</g>
<circle cx="175.66" cy="175.896" r="65.5" stroke="white" stroke-dasharray="8 8"/>
<circle cx="175.66" cy="175.896" r="111.5" stroke="white" stroke-dasharray="8 8"/>
<circle cx="175.66" cy="175.896" r="174.5" stroke="white" stroke-dasharray="8 8"/>
<defs>
<filter id="filter0_i_16673_218" x="141.66" y="141.896" width="67" height="67" filterUnits="userSpaceOnUse" color-interpolation-filters="sRGB">
<feFlood flood-opacity="0" result="BackgroundImageFix"/>
<feBlend mode="normal" in="SourceGraphic" in2="BackgroundImageFix" result="shape"/>
<feColorMatrix in="SourceAlpha" type="matrix" values="0 0 0 0 0 0 0 0 0 0 0 0 0 0 0 0 0 0 127 0" result="hardAlpha"/>
<feOffset/>
<feGaussianBlur stdDeviation="7.5"/>
<feComposite in2="hardAlpha" operator="arithmetic" k2="-1" k3="1"/>
<feColorMatrix type="matrix" values="0 0 0 0 0 0 0 0 0 0 0 0 0 0 0 0 0 0 0.1 0"/>
<feBlend mode="normal" in2="shape" result="effect1_innerShadow_16673_218"/>
</filter>
</defs>
</svg>
